!!!SOCIAL_FUNCTION:	corn-grinding songs
!!!PDT:	1957
!!!OTL: No_76_Corn-grinding_Song_(c).krn
!!!LING_GROUP: Keresan
!!!LANG: Tone
!!!REG: Southwest
**kern
*staff1
=1-
=
*clefF4
*k[b-e-]
*M2/4
8F\L
8F\J
4F\
=2
12G\L
12F\
12G\J
4F\
=3
*M5/8
8F\L
8F\
8F\J
8r
16F\LL
16D\JJ
=4
*M2/4
4.F\
8F\
=5
8D/L
8C/J
8BB-/L
8BB-/J
=6
*M5/8
8BB-/L
8BB-/J
4r
8F\
=7
*M2/4
8F\L
8F\J
8F\L
8D\J
=8
8BB-/L
8D/J
8BB-/L
8BB-/J
=9
*M3/4
8BB-/L
8D/J
4BB-/
8r
8F\
=10
*M2/4
4BB-/
8BB-/L
8BB-/J
=11
8BB-/L
8BB-/J
8BB-/L
8D/J
=12
4BB-/
8BB-/L
8BB-/J
=13
8BB-/L
8BB-/J
8r
8F\
=14
*M5/8
8BB-/L
8BB-/
8BB-/
16D/L
16D/J
8C/J
=15
*M2/4
2BB-/
=16
4BB-/
16BB-/LL
16BB-/JJ
8r
=17:|!
16F\LK
8.F\J
(8.B-\L
16F\Jk)
=18
8F\L
8F\J
8C\L
(16E-\L
16D\JJ)
=19
*M3/4
4BB-/
8GG/L
16BB-/L
16BB-/JJ
8BB-/
8r
=20
16BB-/LK
8.BB-/J
8.F\L
16E-\Jk
12D\L
12C\
12D\J
=21
12BB-/L
12BB-/
12BB-/J
8BB-/L
8BB-/J
4BB-/
=22
*M2/4
16D/LL
16BB-/J
8BB-/J
16D/LL
16C/J
8BB-/J
=23
4.BB-/
8D\
=24
8BB-/L
8BB-/J
8BB-/
8r
=25
12F\L
12E-\
12E-\J
12F\L
12E-\
12F\J
=26
4BB-/
4BB-/
=27
(12D/L
12C/)
12BB-/J
8BB-/
8r
=28
16D/LL
16C/J
8BB-/J
16D/LL
16C/J
8BB-/J
=29
8BB-/L
8BB-/J
8BB-/L
8BB-/J
=30
4BB-/
8BB-/
8r
=31
(16BB-/LL
16GG/J)
8GG/J
(16GG/LL
16FF/J)
8FF/J
=32
16FF/LL
16DD/J
8DD/J
16DD/LL
16DD/J
8DD/J
=33
4DD/
4r
==
*-
